X: 4
T: Reel du p\`ere Bruneau
C:
M: C|
L: 1/8
R: reel
K: D
%%graceslurs 0
%%slurgraces 0
(3ABc |\
"D"dAFA "G"GBAG | "D"FA"A"EA "D"D2FA |\
"D"dfed "Em7"cBAG | "A"FDEG "D"FDFA ||\
"D"dAFA "G"GBAG | "D"FA"A"EA "D"D2FA |
"D"dfed "Em7"cBAG |[1 "A"FABc "D"d2 :|\
[2 "A"FABc "D"d2~B2 |]\
"D"A2FA dFAd | fAdf a2zB |\
"D/F#"A2FA "Fdim"dFAd |
"Em"c3e/c/ B3c/B/ ||\
E3F  G2A2 | "A"c3c "Bm"cc~B2 |\
"Cdim" A2cB "A/C#" AGFE |\
"D"DdDd "A+"~B2AB |[|\
"D"AAFA dFAd |
fAd(f a)z2 B |\
"D/F#"A2FA "Fdim"dFAd | "Em"c3e/c/ B3c/B/ ||\
"A"E3F  G2A2 | "Em" c3c c2~B2 |\
"A"A2cB AGFE | "D"DDFA d2 |]

